Papirus/64x64/apps/com.github.djaler.formatter.svg

<svg xmlns="http://www.w3.org/2000/svg" width="64" height="64" version="1">
 <path style="fill:#b7b7b7" d="m12 6h40v20h-40z"/>
 <rect style="fill:#4f4f4f" width="56" height="34" x="4" y="24" rx="2.8" ry="2.834"/>
 <g style="opacity:.4" transform="scale(2)">
  <rect width="16" height="2" x="8" y="16"/>
  <rect width="12" height="2" x="10" y="20"/>
  <rect width="8" height="2" x="12" y="24"/>
 </g>
 <path style="opacity:.2" d="m4 55.167969v1c0 1.57 1.2496033 2.832031 2.8007812 2.832031h50.398438c1.549978 0 2.800781-1.262031 2.800781-2.832031v-1c0 1.57-1.250803 2.832031-2.800781 2.832031h-50.398438c-1.5511777 0-2.800781-1.262031-2.800781-2.832031z"/>
 <path style="opacity:.2;fill:#ffffff" d="m12 6v1h40v-1h-40z"/>
 <circle style="opacity:.2" cx="48" cy="47" r="16"/>
 <rect style="opacity:.5" width="10" height="6" x="16" y="10"/>
 <rect style="opacity:.5" width="10" height="6" x="38" y="10"/>
 <circle style="fill:#3c92d2" cx="48" cy="46" r="16"/>
 <path style="fill:#ffffff" d="m40 46c0 4.4184 3.5818 8 8 8 4.3734 0 7.9204-3.2112 7.9922-7.5676 0.0048-0.0441 0.0076-0.08842 0.008-0.1328 0-0.736384-0.763816-1.2996-1.5002-1.2996s-1.5 0.563216-1.5 1.2996c0 2.9454-2.05428 4.7004-4.99988 4.7004-2.9454 0-5.00012-2.0544-5.00012-5 0-2.9454 2.05452-5 5.00012-5v3l5.99988-4.5-5.99908-4.5v2.9986c-4.4184 0-8 3.5818-8 8z"/>
</svg>

<?xml version="1.0" encoding="UTF-8" standalone="no"?>
<svg
   id="_图层_1"
   version="1.1"
   viewBox="0 0 64 64" width="64" height="64"
   sodipodi:docname="com.github.djaler.formatter.svg"
   xml:space="preserve"
   inkscape:version="1.4 (e7c3feb100, 2024-10-09)"
   xmlns:inkscape="http://www.inkscape.org/namespaces/inkscape"
   xmlns:sodipodi="http://sodipodi.sourceforge.net/DTD/sodipodi-0.dtd"
   xmlns="http://www.w3.org/2000/svg"
   xmlns:svg="http://www.w3.org/2000/svg"><sodipodi:namedview
     id="namedview26"
     pagecolor="#505050"
     bordercolor="#eeeeee"
     borderopacity="1"
     inkscape:showpageshadow="0"
     inkscape:pageopacity="0"
     inkscape:pagecheckerboard="0"
     inkscape:deskcolor="#505050"
     inkscape:zoom="8.453125"
     inkscape:cx="31.94085"
     inkscape:cy="33.833641"
     inkscape:window-width="1920"
     inkscape:window-height="939"
     inkscape:window-x="0"
     inkscape:window-y="34"
     inkscape:window-maximized="1"
     inkscape:current-layer="_图层_1" /><!-- Generator: Adobe Illustrator 29.0.1, SVG Export Plug-In . SVG Version: 2.1.0 Build 192)  --><defs
     id="defs6"><style
       id="style1">
      .st0 {
        fill-opacity: .5;
      }

      .st0, .st1, .st2, .st3, .st4, .st5, .st6, .st7 {
        fill: #fff;
      }

      .st8 {
        fill: #133c9a;
      }

      .st2, .st9 {
        display: none;
      }

      .st3 {
        fill-opacity: .2;
      }

      .st4 {
        fill-opacity: .9;
      }

      .st10 {
        fill: #3370ff;
      }

      .st11 {
        fill: url(#_未命名的渐变_3);
      }

      .st12 {
        fill: url(#_未命名的渐变);
      }

      .st5 {
        fill-opacity: .3;
      }

      .st6 {
        fill-opacity: 0;
      }

      .st7 {
        fill-opacity: .7;
      }

      .st13 {
        fill: #00d6b9;
      }

      .st14 {
        fill: url(#_未命名的渐变_2);
      }
    </style><radialGradient
       id="_未命名的渐变"
       data-name="未命名的渐变"
       cx="123.9"
       cy="-40.2"
       fx="123.9"
       fy="-40.2"
       r="59.4"
       gradientTransform="translate(-26.8 25.5) scale(.6 -.7)"
       gradientUnits="userSpaceOnUse"><stop
         offset="0"
         stop-color="#db202e"
         id="stop1" /><stop
         offset="1"
         stop-color="#e01b24"
         id="stop2" /></radialGradient><radialGradient
       id="_未命名的渐变_2"
       data-name="未命名的渐变 2"
       cx="67.6"
       cy="26.8"
       fx="67.6"
       fy="26.8"
       r="105.2"
       gradientTransform="translate(-26.6 25.3) scale(.6 -.7)"
       gradientUnits="userSpaceOnUse"><stop
         offset="0"
         stop-color="#ffb648"
         id="stop3" /><stop
         offset="1"
         stop-color="#ff7800"
         stop-opacity="0"
         id="stop4" /></radialGradient><radialGradient
       id="_未命名的渐变_3"
       data-name="未命名的渐变 3"
       cx="61.7"
       cy="18.6"
       fx="61.7"
       fy="18.6"
       r="68"
       gradientTransform="translate(-26.8 25.8) scale(.6 -.7)"
       gradientUnits="userSpaceOnUse"><stop
         offset="0"
         stop-color="#c64600"
         id="stop5" /><stop
         offset="1"
         stop-color="#a51d2d"
         id="stop6" /></radialGradient></defs><path
     class="st1"
     d="M47.5,64.1H13.8c-7.6,0-13.8-6.3-13.8-13.8V13.7C0,6.2,6.2,0,13.7,0h36.6c7.5,0,13.7,6.2,13.7,13.7v36.6c0,7.5-6.2,13.7-13.7,13.7h-2.9.1Z"
     id="path6"
     style="fill:#e4e4e4;fill-opacity:1" /><g
     id="g48"
     transform="matrix(0.81663586,0,0,0.80906054,5.8314233,7.270406)"><path
       style="fill:#b7b7b7"
       d="M 12,6 H 52 V 26 H 12 Z"
       id="path1-6" /><rect
       style="fill:#4f4f4f"
       width="56"
       height="34"
       x="4"
       y="24"
       rx="2.8"
       ry="2.8340001"
       id="rect1" /><g
       style="opacity:0.4"
       transform="scale(2)"
       id="g4"><rect
         width="16"
         height="2"
         x="8"
         y="16"
         id="rect2" /><rect
         width="12"
         height="2"
         x="10"
         y="20"
         id="rect3" /><rect
         width="8"
         height="2"
         x="12"
         y="24"
         id="rect4" /></g><path
       style="opacity:0.2"
       d="m 4,55.167969 v 1 C 4,57.737969 5.2496033,59 6.8007812,59 H 57.199219 C 58.749197,59 60,57.737969 60,56.167969 v -1 C 60,56.737969 58.749197,58 57.199219,58 H 6.8007812 C 5.2496035,58 4.0000002,56.737969 4,55.167969 Z"
       id="path4" /><path
       style="opacity:0.2;fill:#ffffff"
       d="M 12,6 V 7 H 52 V 6 Z"
       id="path5-1" /><circle
       style="opacity:0.2"
       cx="48"
       cy="47"
       r="16"
       id="circle5" /><rect
       style="opacity:0.5"
       width="10"
       height="6"
       x="16"
       y="10"
       id="rect5" /><rect
       style="opacity:0.5"
       width="10"
       height="6"
       x="38"
       y="10"
       id="rect6" /><circle
       style="fill:#3c92d2"
       cx="48"
       cy="46"
       r="16"
       id="circle6" /><path
       style="fill:#ffffff"
       d="m 40,46 c 0,4.4184 3.5818,8 8,8 4.3734,0 7.9204,-3.2112 7.9922,-7.5676 0.0048,-0.0441 0.0076,-0.08842 0.008,-0.1328 C 56.0002,45.563216 55.236384,45 54.5,45 53.763616,45 53,45.563216 53,46.2996 53,49.245 50.94572,51 48.00012,51 45.05472,51 43,48.9456 43,46 c 0,-2.9454 2.05452,-5 5.00012,-5 v 3 L 54,39.5 48.00092,35 v 2.9986 c -4.4184,0 -8,3.5818 -8,8 z"
       id="path6-5" /></g></svg>
